packages/assets/static/images/icons/airplane-tilt.svg

<svg width="24" height="24" viewBox="0 0 24 24" xmlns="http://www.w3.org/2000/svg">
<path d="M17.7495 10.3325L20.4813 7.76187L20.4973 7.74593C21.0599 7.18326 21.376 6.42011 21.376 5.62437C21.376 4.82863 21.0599 4.06548 20.4973 3.5028C19.9346 2.94013 19.1714 2.62402 18.3757 2.62402C17.58 2.62402 16.8168 2.94013 16.2541 3.5028C16.2541 3.50843 16.2438 3.51312 16.2382 3.51874L13.6676 6.25062L5.88633 3.41937C5.75221 3.37059 5.60697 3.36108 5.46764 3.39197C5.32832 3.42286 5.2007 3.49285 5.09976 3.59374L2.84976 5.84374C2.77136 5.92221 2.71134 6.01709 2.67402 6.12155C2.6367 6.22601 2.62302 6.33744 2.63396 6.44783C2.6449 6.55821 2.68019 6.66479 2.73728 6.7599C2.79438 6.855 2.87186 6.93625 2.96414 6.9978L8.95383 10.9906L7.56445 12.3753H5.62476C5.42612 12.3754 5.23562 12.4543 5.09508 12.5947L2.84508 14.8447C2.75733 14.9322 2.69264 15.0401 2.6568 15.1588C2.62096 15.2774 2.61508 15.4031 2.63969 15.5246C2.6643 15.6461 2.71863 15.7595 2.79783 15.8549C2.87702 15.9502 2.97861 16.0245 3.09351 16.0709L6.54539 17.4519L7.92351 20.8972L7.92914 20.9122C7.97681 21.0276 8.05255 21.1293 8.14947 21.208C8.24639 21.2867 8.36144 21.34 8.48417 21.363C8.60689 21.386 8.73342 21.378 8.85227 21.3397C8.97112 21.3014 9.07854 21.2341 9.16476 21.1437L11.4026 18.905C11.4726 18.8356 11.5283 18.7531 11.5664 18.6623C11.6045 18.5714 11.6243 18.4739 11.6248 18.3753V16.4356L13.0085 15.0519L17.0013 21.0416C17.0629 21.1338 17.1441 21.2113 17.2392 21.2684C17.3343 21.3255 17.4409 21.3608 17.5513 21.3717C17.6617 21.3827 17.7731 21.369 17.8776 21.3317C17.982 21.2944 18.0769 21.2343 18.1554 21.1559L20.4054 18.9059C20.5063 18.805 20.5763 18.6774 20.6072 18.538C20.638 18.3987 20.6285 18.2535 20.5798 18.1194L17.7495 10.3325ZM17.7429 19.4478L13.7501 13.4591C13.6889 13.3661 13.6077 13.2879 13.5125 13.2301C13.4174 13.1724 13.3105 13.1366 13.1998 13.1253C13.1745 13.1253 13.1501 13.1253 13.1257 13.1253C13.0271 13.1253 12.9295 13.1448 12.8385 13.1826C12.7474 13.2204 12.6647 13.2758 12.5951 13.3456L10.3451 15.5956C10.2043 15.736 10.1251 15.9265 10.1248 16.1253V18.065L8.89945 19.2903L7.82133 16.5941C7.7836 16.5004 7.72738 16.4154 7.65601 16.3441C7.58465 16.2727 7.49962 16.2165 7.40601 16.1787L4.71164 15.1006L5.93601 13.8753H7.87476C7.97328 13.8754 8.07085 13.856 8.1619 13.8184C8.25295 13.7808 8.33568 13.7256 8.40539 13.6559L10.6554 11.4059C10.734 11.3275 10.7941 11.2325 10.8316 11.128C10.869 11.0234 10.8827 10.9118 10.8718 10.8013C10.8608 10.6908 10.8255 10.5841 10.7683 10.4889C10.7111 10.3938 10.6335 10.3125 10.541 10.2509L4.55226 6.25718L5.81789 4.99249L13.6198 7.82937C13.7572 7.87988 13.9065 7.88904 14.0491 7.85572C14.1917 7.8224 14.3214 7.74806 14.4223 7.64187L17.3229 4.55655C17.6056 4.2821 17.985 4.12991 18.379 4.13287C18.773 4.13584 19.15 4.29372 19.4286 4.57241C19.7071 4.85109 19.8649 5.22818 19.8677 5.6222C19.8705 6.01622 19.7181 6.39551 19.4435 6.67812L16.3619 9.5778C16.2558 9.67865 16.1814 9.80839 16.1481 9.95099C16.1148 10.0936 16.1239 10.2428 16.1744 10.3803L19.0113 18.1822L17.7429 19.4478Z"/>
</svg>

<svg viewBox="0 0 24 24" xmlns="http://www.w3.org/2000/svg" aria-hidden="true" fill="currentColor"><path d="m17.75 10.333 2.731-2.571.016-.016a3 3 0 0 0-4.243-4.243c0 .005-.01.01-.016.016l-2.57 2.732-7.782-2.832a.75.75 0 0 0-.786.175l-2.25 2.25a.75.75 0 0 0 .114 1.154l5.99 3.993-1.39 1.384h-1.94a.75.75 0 0 0-.529.22l-2.25 2.25a.75.75 0 0 0 .249 1.226l3.451 1.38 1.379 3.446.005.015a.75.75 0 0 0 1.236.232l2.238-2.239a.75.75 0 0 0 .222-.53v-1.94l1.383-1.383 3.993 5.99a.75.75 0 0 0 1.154.114l2.25-2.25a.75.75 0 0 0 .175-.787zm-.007 9.115-3.993-5.989a.75.75 0 0 0-.55-.334h-.074a.75.75 0 0 0-.53.22l-2.25 2.25a.75.75 0 0 0-.221.53v1.94L8.899 19.29l-1.078-2.696a.75.75 0 0 0-.415-.415L4.712 15.1l1.224-1.226h1.939a.75.75 0 0 0 .53-.22l2.25-2.25a.75.75 0 0 0-.114-1.154L4.552 6.257l1.266-1.265L13.62 7.83a.75.75 0 0 0 .802-.187l2.9-3.085a1.5 1.5 0 0 1 2.122 2.121l-3.082 2.9a.75.75 0 0 0-.188.802l2.837 7.802z"/></svg>
